X:1
T:Title
%%score 1 2
L:1/8
Q:1/4=90
M:4/4
K:G
V:1 treble nm="Strings 1, Soprano"
V:2 bass nm="Strings 1, Bass"
V:1
 [DG]2 [DG]2 [DB]3 [DG] | [EA][EG][EG][CE] [B,D]2 [B,G]2 | [B,D]2 [B,D]2 [CE][CF][DG][DA] | %3
w: 1.~Je sus~ left~ a~|home~ of~ dazz ling~ splen dor,~|For~ this~ sin ful~ world~ with~|
 [DB]2 [DG]2 [DA]4 | [DG]2 [DG]2 [DG]2 [DG][DA] | [GB]2 [DB]>[CA] [B,G]2 [CE]2 | %6
w: sor row~ dim;~|Hum bly~ fill ing~ the~|place~ of~ a~ ser vant,~|
 [B,D]2 [B,D]2 [DE][DF][DG][DA] | [DG]2 [DF]2 [DG]4 | [Gd][Gd][Gd][Gd] [Ge]2 [Gd]2 | %9
w: And~ He~ calls~ us~ all~ to~|fol low~ Him.~||
 [Gd]2 [GB]2 [Fc]2 [FA]2 | [GB]3 [FA] [GB][Gc][Gd][Ge] | [Gd]2 [GB]2 [FA]4 | %12
w: |||
 [DG]2 [DG]2 [DG][DA][GB][FA] | [GB]2 [Gd]2 [Ge]2 [Gd]2 | [DG]2 [EG]2 [EG][EG][EG][EA] | %15
w: |||
 [DB]2 [CA]2 [B,G]4 |] %16
w: |
V:2
 [G,B,]2 [G,B,]2 G,3 [G,B,] | [C,C][C,C][C,C][C,G,] [G,,G,]2 [G,,G,]2 | %2
 [G,,G,]2 [G,,G,]2 [C,G,][C,G,][B,,G,][A,,F,] | [G,,G,]2 [B,,G,]2 [D,F,]4 | %4
 [G,B,]2 [G,B,]2 [G,B,]2 [G,B,][G,C] | [G,D]2 G,>[D,F,] [E,G,]2 [C,G,]2 | %6
 [D,G,]2 [D,G,]2 [D,G,][D,A,][D,B,][D,C] | [D,B,]2 [D,A,]2 [G,,G,B,]4 | %8
 [G,B,][G,B,][G,B,][G,B,] [G,C]2 [G,B,]2 | [G,B,]2 [G,D]2 [D,D]2 [D,D]2 | %10
 [G,D]3 [G,D] [G,D][G,A,][G,B,][G,C] | [G,B,]2 [G,D]2 [D,D]4 | %12
 [G,B,]2 [G,B,]2 [G,B,][G,C][G,D][G,D] | [G,D]2 [G,B,]2 [G,C]2 [G,B,]2 | %14
 [G,B,]2 [E,B,]2 [C,C][C,C][C,C][C,C] | [D,G,]2 [D,F,]2 [G,,G,]4 |] %16

